X:1
T:Marrowbones
B:Everymans Book Of British Ballads, ed Roy Palmer
S:Sung by James Knights (b. 1880)
Z:Collected by George Ewart Evans, March 1968.
M:3/8
L:1/16
K:D
A4A2|A2 G2 F2|E2 E2 D2|A4A2|A4A2|A4G2|E4C2|D6-|D4A2|B2 B2 c2|d2 d2 c2|B4A2|A4F2|D2 D2 D2|D4D2|{G}A6-|A4A A|D2 D2 D2|D4A,2|D2 D2 D2|D4A,2|D2 D2 D2|D4F2|A4A2|B2 B2 B2|B4B2|A2 A2 A2|A4F2|F2 F2 F2|A4C2|D6
w:Now there was an old wo-man in I-re-land, In Ire-land she did dwell;_ She loved her old hus-band right dear-ly, And a-no-ther man twice as well._ To my rid-dy fol lol, ri rid-dy fol lol, Ri rid-dy fol lau-rel day, Ri rid-dy fol lol, ri rid-dy fol lol, Ri rid-dy for lau-rel day.
